!!!!SEGMENT: pl-wtm--r-325-m--001_moniuszko-stanislaw--kontredanse-na-4-rece.krn
!!!cenid: 18xx:3027
!!!COM: Moniuszko, Stanisław
!!!COM-rismid: pe30008351
!!!CDT: 1819/05/05-1872/06/04
!!!CNT: Polish
!!!OTL: Kontredanse na 4 ręce
!!!PDT:
!!!AGN: Secular
!!!SMS-siglum: PL-Wtm
!!!SMS-shelfmark: R 325/M
!!!SMS-shelfwork: 001 G
!!!SMS-variant:
!!!SMS-altvar:
!!!NIFC-rismid: 1001094316
!!!URL-scan: http://repozytorium.nifc.pl/skany/pl-wtm-nut--r325m
!!!ONB-nifc: UWAGA: w zbiorze 6 kontredansów, numeracja plików zgodna ze źródłową
**kern	**kern	**dynam	**kern	**kern	**dynam
*group1	*group1	*group1	*group1	*group1	*group1
*part2	*part2	*part2	*part1	*part1	*part1
*staff4	*staff3	*	*staff2	*staff1	*
*I"[Piano]	*I"[Piano]	*	*I"[Piano]	*I"[Piano]	*
*clefF4	*clefF4	*	*clefG2	*clefG2	*
*k[b-]	*k[b-]	*	*k[b-]	*k[b-]	*
*M6/8	*M6/8	*	*M6/8	*M6/8	*
*	*	*	*	*8va	*
*all\right	*all\right	*	*all\right	*all\right	*
!LO:TX:t=P:problem:all\right:global	!LO:TX:t=P:problem:all\right:global	!	!LO:TX:t=P:problem:all\right:global	!LO:TX:t=P:problem:all\right:global	!
!LO:TX:t=P:problem:brak klucza	!	!LO:DY:rj:color=blue	!	!LO:TX:a:t=Fig&colon; 1.:color=blue	!LO:DY:rj
8FFF/ 8FF	8F\ 8A 8c 8f	ff	8a\ 8cc	8aa\ 8ccc 8aaa	ff
=1	=1	=1	=1	=1	=1
!LO:TX:t=P:problem:brak główek	!LO:TX:t=P:problem:brak główek	!	!LO:TX:a:t=col 1m	!	!
4FFF/ 4FF	4F\ 4A 4c 4f	.	8a\yy 8ccyy 8ggyy	8aa\ 8ccc\ 8ggg\	.
.	.	.	8ryy	8r	.
!LO:TX:t=P:problem:brak główek	!LO:TX:t=P:problem:brak główek	!	!	!	!
8FFF/ 8FF	8F\ 8A 8c 8f	.	8a\yy 8ccyy 8ffyy	8aa\ 8ccc 8fff	.
!LO:TX:t=P:problem:brak główek	!LO:TX:t=P:problem:brak główek	!	!	!	!
4FFF/ 4FF	4F\ 4A 4c 4f	.	8a\yy 8ccyy 8eeyy	8aa\ 8ccc 8eee	.
.	.	.	8ryy	8r	.
!LO:TX:t=P:problem:brak główek	!LO:TX:t=P:problem:brak główek	!	!	!	!
8FFF/ 8FF	8F\ 8A 8c 8f	.	8a\yy 8ddyy	8aa\ 8ddd	.
=2	=2	=2	=2	=2	=2
!LO:TX:t=P:problem:brak główek	!LO:TX:t=P:problem:brak główek	!	!	!	!
4FFF/ 4FF	4F\ 4A 4c 4f	.	8ccyy\L	8ccc\L	.
.	.	.	8a\yy	8aa\	.
!LO:TX:t=P:problem:brak główek	!LO:TX:t=P:problem:brak główek	!	!	!	!
8FFF/ 8FF	8F\ 8A 8c 8f	.	8cc\Jyy	8ccc\J	.
!LO:TX:t=P:problem:brak główek	!LO:TX:t=P:problem:brak główek	!	!	!	!
4FFF/ 4FF	4F\ 4A 4c 4f	.	8ff\yy	8fff\	.
.	.	.	8ryy	8r	.
8FFF/ 8FF	8F\ 8c	.	8a\yy 8ffyy	8aa\ 8fff	.
=3	=3	=3	=3	=3	=3
4GGG/ 4GG	4G\ 4c	.	8b-\yy 8ffyy	8bb-\ 8fff	.
.	.	.	8ryy	8r	.
!	!LO:TX:t=P:problem:brak główek	!	!	!	!
8GG/	8G\ 8c	.	8b-\yy 8eeyy	8bb-\ 8eee	.
!	!LO:TX:t=P:problem:brak główek	!	!	!	!
4GG/	4G\ 4c	.	4b-\yy 4eeyy	4bb-\ 4eee	.
8FF/ 8F	8c\ 8F	.	8b-\yy 8ffyy	8bb-\ 8fff	.
=4	=4	=4	=4	=4	=4
.	.	.	8qaa/yy	8qaaa/	.
4EE^</ 4E	4G^>\ 4B- 4c	.	8gg\Lyy	8ggg\L	.
.	.	.	(>16ff#X\Lyy	(>16fff#X\L	.
.	.	.	16gg\yy	16ggg\	.
8DD/ 8D	8G\ 8B- 8d	.	16aa\yy	16aaa\	.
.	.	.	16gg\JJyy	16ggg\JJ	.
8CC/ 8C	8G\ 8c 8e	.	8cc\)	8ccc\) 8cccc	.
8r	8r	.	8r	8r	.
8BBB-/ 8BB-	8G\ 8c 8e	.	8cc\	8ccc\ 8cccc	.
!!LO:LB:g=original
=5	=5	=5	=5	=5	=5
4AAA/ 4AA	4c\ 4d 4f#X	.	4dd\	4ddd^>\ 4dddd	.
!	!LO:TX:t=P:problem:niewidoczne główki	!	!	!	!
8AA/	8c\ 8d 8f#	.	8cc\	8ccc\ 8cccc	.
.	.	.	4qqbb-\	.	.
4DD/ 4D	4A\ 4d 4f#	.	(>8cc\L	(>8ccc\L 8cccc	.
.	.	.	8b-\)	8bb-\) 8bbb-	.
8CC/ 8C	8A\ 8d	.	8a\J	8aa\J 8aaa	.
!	!	!	!LO:TX:t=(x)	!	!
=6	=6	=6	=6	=6	=6
*	*^	*	*	*	*
8BBB-/L 8BB-	8d\L	8ryy	.	8g\L 8dd	8gg\L 8ggg	.
8AAA/ 8AA	8c\ 8d	8ryy	.	8a\ 8dd	8aa\ 8aaa	.
8GGG/J 8GG	8d\J	8ryy	.	8b-\J 8dd	8bb-\J 8bbb-	.
(<4BBB-/ (>4BB-	4.f/	4G\	.	4dd\	(>4ddd^>\	.
8BBBn/) 8BBn)	.	8G#X\	.	8dd-X\	8ddd-X\)	.
=7	=7	=7	=7	=7	=7	=7
4CC/ 4C	(<8f/L	4A\	.	8cc\L	8ccc\L	.
.	8c/	.	.	8ff\	8fff\	.
!LO:TX:t=P:problem:niewidoczne główki	!	!	!	!	!	!
8CC/ 8C	8A/J)	8ryy	.	8aa\J	8aaa\J	.
!LO:TX:t=P:problem:niewidoczne główki	!	!	!	!	!	!
4CC/ 4C	4A\ 4c 4f	4ryy	.	4ccc\	4cccc\	.
!LO:TX:t=P:problem:niewidoczne główki	!	!	!	!	!	!
.	.	.	.	8qeee/	8qeeee/	.
8CC/ 8C	8G#X\ 8Bn 8f	8ryy	.	8ddd\	8dddd^<\	.
*	*v	*v	*	*	*	*
=8	=8	=8	=8	=8	=8
!LO:TX:t=P:problem:niewidoczne główki	!	!	!	!	!
8CC/ 8C	8Gn\ 8B-X 8f	.	8ccc\	8cccc\	.
8r	8r	.	8r	8r	.
!	!LO:TX:t=P:problem:akcent z góry i z dołu	!	!	!	!
8CC^</ 8C	8B-^>\ 8c 8e^<	.	(>16gg\LL	(>16ggg^>\LL	.
.	.	.	16aa\JJ	16aaa\JJ	.
8FFF^</ 8FF	8A^>\ 8c 8f	.	8ff\)	8fff\)	.
*	*	*	*	*X8va	*
8r	8r	.	8r	8r	.
!	!	!	!	!	!LO:DY:rj
8r	8r	.	(>8ccc\	(>8ccc\	p
!!LO:LB:g=original
=9||	=9||	=9||	=9||	=9||	=9||
*	*	*	*	*8va	*
*	*^	*	*	*	*
!	!	!	!	!LO:TX:a:t=col 1m	!LO:TX:t=P:problem:brak zakończenia łuku	!
(<4.CC/	4.B-/	(>8B-\L	p	8ff\)yy	8fff\)	.
.	.	8c\	.	8ryy	8r	.
.	.	8e\J)	.	(8aa\yy	(>8aaa\	.
4.DD/	4.A/	(>8A\L	.	8ff\)yy	8fff\)	.
.	.	8c\	.	8ryy	8r	.
.	.	8f\J)	.	8aa\yy	8aaa\	.
=10	=10	=10	=10	=10	=10	=10
!	!	!LO:N:vis=4.	!	!	!	!
4.GGG/ 4.GG	4.Bn/	(>8Bn\L	.	(8gg\Lyy	(>8ggg\L	.
.	.	8d\	.	8dd\yy	8ddd\	.
.	.	8G\J)	.	8ee\J)yy	8eee\J)	.
4.AAA/ 4.AA	4.c/	(>8c\L	.	8cc\yy	8ccc\	.
.	.	8F\	.	8ryy	8r	.
.	.	8f\J)	.	8cc\yy	8ccc\	.
=11	=11	=11	=11	=11	=11	=11
4.BBB-/ 4.BB-	4.d/	(>8B-\L	.	(8dd\Lyy	(>8ddd\L	.
.	.	8F\	.	8ee\yy	8eee\	.
.	.	8d\J)	.	8ff\Jyy	8fff\J	.
.	.	.	.	8qgg/yy	8qggg/	.
4.CC/) 4.C	4.c/	(>8A\L	.	8ff\Lyy	8fff\L	.
.	.	8F\	.	8ee\yy	8eee\	.
.	.	8d\J)	.	8ff\J)yy	8fff\J)	.
=12	=12	=12	=12	=12	=12	=12
(>4.C/	(>8e/L	4.B-\	.	(4gg\yy	(>4ggg\	.
.	8c/	.	.	.	.	.
.	8g/J)	.	.	8cc\yy	8ccc\	.
4.F\)	(>8A\L 8f	8ryy	.	8aa\)yy	8aaa\)	.
.	8c\	8ryy	.	8ryy	8r	.
.	8f\J)	8ryy	.	(16ddd\LLyy	(>16dddd\LL	.
.	.	.	.	16ccc\JJyy	16cccc\JJ	.
=13	=13	=13	=13	=13	=13	=13
(<4.EE/	4.B-/	(>8B-\L	.	8gg\)yy	8ggg\)	.
.	.	8c\	.	8ryy	8r	.
.	.	8e\J)	.	(16bb-\LLyy	(>16bbb-\LL	.
.	.	.	.	16aa\JJyy	16aaa\JJ	.
4.DD/	4.A/	(>8A\L	.	8ff\)yy	8fff\)	.
.	.	8c\	.	8ryy	8r	.
.	.	8f\J)	.	(16aa\LLyy	(>16aaa\LL	.
.	.	.	.	16gg\JJyy	16ggg\JJ	.
!!LO:LB:g=original
=14	=14	=14	=14	=14	=14	=14
!	!	!LO:N:vis=4.	!	!	!	!
4.GGG/ 4.GG	4.Bn/	(>8Bn\L	.	8dd\L)yy	8ddd\L)	.
.	.	8A\	.	(>16cc#X\Lyy	(>16ccc#X\L	.
.	.	.	.	16dd\yy	16ddd\	.
.	.	8G\J)	.	16ff\yy	16fff\	.
.	.	.	.	16ee\JJyy	16eee\JJ	.
4.CC/) 4.C	4.e/	(>8c\L	.	8ccn\)yy	8cccn\)	.
.	.	8G\	.	8ryy	8r	.
.	.	8c\J)	.	8cc\yy	8ccc\	.
*	*v	*v	*	*	*	*
=15	=15	=15	=15	=15	=15
(<4BB-^>/	(>8d\L	.	(>8dd\Lyy	(>8ddd\L	.
.	8c#X\	.	8ee\yy	8eee\	.
8AA/	8cn\J	.	8ff\Jyy	8fff\J	.
4.GG/)	8B-\L	.	8gg\Lyy	8ggg\L	.
.	8d\	.	8aa\yy	8aaa\	.
.	.	.	.	8qcccc/	.
.	8e\J)	.	8bb-\Jyy	8bbb-\J	.
=16	=16	=16	=16	=16	=16
!	!	!	!LO:S:color=blue	!LO:S:color=blue	!
(<4.C/	(>8c\L	.	(>4.ff^\yy (>4.aayy	(>4.fff^>\ (>4.aaa	.
.	8f\	.	.	.	.
.	8A\J)	.	.	.	.
8CC/)	8c\	.	8ee\yy)) 8ggyy	8eee\)) 8ggg	.
8r	8r	.	8ryy	8r	.
!	!LO:CL:color=blue	!	!	!	!
*	*clefG2	*	*	*	*
!LO:TX:t=P:problem:w źródle widoczne zamazane niebieską kredką nuty	!LO:TX:t=P:problem:w źródle widoczne zamazane niebieską kredką nuty	!LO:DY:rj	!	!	!
8r	8A/@ 8c@ 8f@	ff	8a\) 8cc	8aa\) 8ccc 8aaa	ff
*	*	*	*	*X8va	*
!!LO:PB:g=original
=17||	=17||	=17||	=17||	=17||	=17||
!	!LO:CL:color=black	!	!	!	!
*	*	*	*	*8va	*
!	!LO:TX:t=(x):color=blue	!	!LO:TX:a:t=col 1m	!	!
4.FF/ 4.F	4A/ 4c 4f	.	8a\yy 8ccyy 8ggyy	8aa\ 8ccc 8ggg	.
.	.	.	8ryy	8r	.
!	!LO:TX:t=P:problem:niewidoczne główki	!	!	!	!
.	8A/ 8c 8f	.	8a\yy 8ccyy 8ffyy	8aa\ 8ccc 8fff	.
!	!LO:TX:t=P:problem:niewidoczne główki	!	!	!	!
4.CC/ 4.C	4A/ 4c 4f	.	8a\yy 8ccyy 8eeyy	8aa\ 8ccc 8eee	.
.	.	.	8ryy	8r	.
!	!LO:TX:t=P:problem:niewidoczne główki	!	!	!	!
.	8A/ 8c 8f	.	8a\yy 8ddyy	8aa\ 8ddd	.
=18	=18	=18	=18	=18	=18
*rep	*rep	*	*	*	*
4.FF/ 4.F	4A/ 4c 4f	.	(8cc^\Lyy	(>8ccc^>\L	.
.	.	.	8a\yy	8aa\	.
.	8A/ 8c 8f	.	8cc\Jyy	8ccc\J	.
4.CC/ 4.C	4A/ 4c 4f	.	8a\)yy 8ffyy	8aa\) 8fff	.
.	.	.	8ryy	8r	.
.	8A/ 8c 8f	.	8a\yy 8ffyy	8aa\ 8fff	.
*Xrep	*Xrep	*	*	*	*
=19	=19	=19	=19	=19	=19
4.CC#X/ 4.C#X	4B-/ 4d 4g	.	8b-\yy 8ffyy	8bb-\ 8fff	.
.	.	.	8ryy	8r	.
!	!LO:TX:t=P:problem:niewidoczne główki	!	!	!	!
.	8B-/ 8d 8g	.	8b-\yy 8eeyy	8bb-\ 8eee	.
!	!LO:TX:t=P:problem:niewidoczne główki	!	!	!	!
4.DD/ 4.D	4B-/ 4d 4g	.	4b-\yy 4eeyy	4bb-\ 4eee	.
!	!LO:TX:t=P:problem:niewidoczne główki	!	!	!	!
.	8B-/ 8d 8g	.	8b-\yy 8ffyy	8bb-\ 8fff	.
=20	=20	=20	=20	=20	=20
.	.	.	8qaa/	8qaaa/	.
4.EE-X/ 4.E-X	4B-/ 4d-X 4g	.	(>8gg\L	(>8ggg\L	.
.	.	.	8ff#X\	8fff#X\	.
!	!LO:TX:t=P:problem:niewidoczne główki	!	!	!	!
.	8B-/ 8d- 8g	.	8gg\J	8ggg\J	.
4.EEn/ 4.En	4B-/ 4c 4g	.	8cc\)	8ccc\) 8cccc	.
.	.	.	8r	8r	.
.	8B-/ 8c 8g	.	8cc\	8ccc\ 8cccc	.
=21	=21	=21	=21	=21	=21
4.FF/ 4.F	4A/ 4c 4f	.	(>4ff^>\	(>4fff^>\ 4ffff	.
.	8A/ 8a	.	8cc\)	8ccc\) 8cccc	.
4.FF#X/ 4.F#X	4c/ 4e-X 4a	.	(>8cc\L	(>8ccc\L 8cccc	.
.	.	.	8bb- 8b-\	8bb-\ 8bbb-	.
!	!LO:TX:t=P:problem:niewidoczne główki	!	!	!	!
.	8c/ 8e- 8a	.	8aa 8a\J)	8aa\J) 8aaa	.
*	*	*	*	*X8va	*
!!LO:LB:g=original
=22	=22	=22	=22	=22	=22
!	!	!	!	!LO:SIC:v:brak linii 8va	!
4.GG/ 4.G	4B-/ 4d 4b-	.	(>8gg\L	(>8gg\L 8g	.
.	.	.	8aa\	8aa\	.
.	8B-/ 8g	.	8bb-\J)	8bb-\J)	.
4.BBB-/ 4.BB-	4B-/ 4f 4g	.	(>4dd^>\	(>4dd^>\	.
.	8B-/ 8f 8g	.	8dd-X\)	8dd-X\)	.
=23	=23	=23	=23	=23	=23
4.CC/ 4.C	4A/ 4f 4a	.	8cc\L	8cc\L	.
.	.	.	8ff\	8ff\	.
.	8A/ 8c 8f	.	8aa\J	8aa\J	.
8C/	8A/ 8c 8f	.	4ccc\	4ccc\	.
8r	8r	.	.	.	.
.	.	.	8qqeee/	8qqeee/	.
8r	8fn/ 8B< 8G#<	.	8ddd\	8ddd\	.
=24	=24	=24	=24	=24	=24
8CC/ 8C	8Gn</ 8B-X< 8e	.	8ccc\	8ccc\	.
8r	8r	.	8r	8r	.
8CC/ 8C	8B-^</ 8c 8e	.	(>16gg^>\LL	(>16gg^>\LL	.
.	.	.	16aa\JJ	16aa\JJ	.
8FF/ 8F	8A^</ 8c 8f	.	8ff^>\)	8ff^>\)	.
8r	8r	.	8r	8r	.
8r	8r	.	8r	8r	.
!!LO:LB:g=original
=25||	=25||	=25||	=25||	=25||	=25||
!	!LO:ART:color=blue	!	!	!	!
2.r	(>8a^</L	p	2.r	(>8ff\L	p
.	8g#X/	.	.	8ee\	.
.	8gn/J	.	.	8cc#X\J	.
.	8f/L	.	.	4aa 4dd\)	.
.	8e/	.	.	.	.
.	8d/J	.	.	16ff\LL	.
.	.	.	.	16gg\JJ	.
=26	=26	=26	=26	=26	=26
2.ryy	8c#X/L	.	2.r	(>4aa^>\	.
.	8B-X</	.	.	.	.
.	8A</<J	.	.	8ee\)	.
.	8G</L	.	.	(>4ee\	.
.	8F</	.	.	.	.
.	8E</J)	.	.	8gg\)	.
=27	=27	=27	=27	=27	=27
(>4.D\	8r	.	2.a/	(>8ff\L	.
.	(<8A/L	.	.	8gg\	.
.	8d/J	.	.	8ff\J	.
4.C\	8e/L	.	.	4ee\)	.
.	8A/	.	.	.	.
.	8e/J)	.	.	8ee\	.
=28	=28	=28	=28	=28	=28
.	.	.	.	4qaa\	.
4.BB-X/	8r	.	(<4a/	(>8dd\L	.
.	(>8A/L	.	.	8cc#X\	.
.	8d/J	.	8g#X/	8dd\J	.
4.AA/)	8c#X/L	.	4.gn/)	8ee\L	.
.	8E</	.	.	8cc#\	.
.	8A</J)	.	.	8a\J)	.
=29	=29	=29	=29	=29	=29
4.DD/ 4.D	(<8d/L	.	(>4.f/ 4.a	(>8ff\L	.
.	8A</	.	.	8ee\	.
.	8d/J)	.	.	8dd\J	.
4.FF/	(<8d/L	.	8a\) 8dd	8ddd\)	.
.	8A</	.	8r	8r	.
.	8d/J)	.	8dd\	8ddd\	.
!!LO:LB:g=original
=30	=30	=30	=30	=30	=30
4.GG/	(<8B-/L 8d	.	4dd\	(>4ddd\	.
.	8G</	.	.	.	.
.	8B-/J) 8d	.	8cc#X\	8ccc#X\	.
4.EE/	(<8B-/L 8d 8g	.	4dd\	4ddd\)	.
.	8G</	.	.	.	.
.	8d/J) 8g	.	8b-\	8bb-\	.
=31	=31	=31	=31	=31	=31
!	!LO:TX:t=Dc.	!	!	!	!LO:DY:rj
4AA\	8r	pp	8a/	8aa\	pp
*	*	*	*	*8va	*
!	!	!	!	!LO:TX:b:t=legieriſsime	!
.	8A<'</L 8d 8f	.	16bb-\LL	16bbb-\LL	.
.	.	.	16aa\	16aaa\	.
8r	8A<'</J 8d 8f	.	16gg\	16ggg\	.
.	.	.	16ff\JJ	16eee\JJ	.
4AAA/ 4AA	8r	.	8ee\	8eee\	.
.	8G<'>/L 8c#X 8g	.	16aa\LL	16aaa\LL	.
.	.	.	16gg\	16ggg\	.
8r	8G<'>/J 8c# 8g	.	16ff\	16fff\	.
.	.	.	16ee\JJ	16eee\JJ	.
=32	=32	=32	=32	=32	=32
(<4.BBB-\ (>4.BB-	8r	.	8dd\	8ddd\	.
.	8G<'>/L 8d 8g	.	16gg\LL	16ggg\LL	.
.	.	.	16ff\	16fff\	.
.	8G<'>/J 8d 8g	.	16ee\	16eee\	.
.	.	.	16dd\JJ	16ddd\JJ	.
8CC\)) 8C	8G</ 8c 8e	.	8cc\	8ccc\	ff
!	!LO:TX:b:t=Dc.	!	!	!	!
8r	8r	.	8r	8r	.
*	*clefF4	*	*	*X8va	*
!!LO:PB:g=original
==	==	==	==	==	==
*-	*-	*-	*-	*-	*-
!!!system-decoration: [(g1)]
!!!ENC: Krzysztof Stępień
!!!END: 2021-09-06
!!!EED: Jędrzej Mróz
!!!ESR: 2021-09-16
!!!RDF**kern: > = above
!!!RDF**kern: < = below
!!!RDF**kern: @ = marked note, color=blue
